packages/components/bolt-icons/src/svgs/utility/copy-to-clipboard.svg

<?xml version="1.0" encoding="UTF-8" standalone="no"?>
<svg width="24px" height="24px" viewBox="0 0 24 24" version="1.1" xmlns="http://www.w3.org/2000/svg" xmlns:xlink="http://www.w3.org/1999/xlink">
    <!-- Generator: Sketch 46.2 (44496) - http://www.bohemiancoding.com/sketch -->
    <title>Icon/utility/Indigo/24px/Copy-to-clipboard</title>
    <desc>Created with Sketch.</desc>
    <defs></defs>
    <g id="Symbols" stroke="none" stroke-width="1" fill="none" fill-rule="evenodd">
        <g id="Icon/utility/Indigo/24px/Copy-to-clipboard">
            <rect id="Rectangle-6" x="0" y="0" width="24" height="24"></rect>
            <path d="M19,20 C19,20.55 18.55,21 18,21 L6,21 C5.45,21 5,20.55 5,20 L5,6 C5,5.45 5.45,5 6,5 L7,5 C7,6.1 7.9,7 9,7 L15,7 C16.1,7 17,6.1 17,5 L18,5 C18.55,5 19,5.45 19,6 L19,20 Z M9,3 L15,3 L15,5 L9,5 L9,4.037 L9,3.999 L9,3.961 L9,2.998 L9,3 Z M18,3 L17,3 C17,1.9 16.1,1 15,1 L9,1 C7.9,1 7,1.9 7,3 L6,3 C4.344,3 3,4.344 3,6 L3,20 C3,21.656 4.344,23 6,23 L18,23 C19.656,23 21,21.656 21,20 L21,6 C21,4.344 19.656,3 18,3 L18,3 Z" id="Clipboard" fill="#1F2555"></path>
            <path d="M13,13 L13,11 C13,10.45 12.55,10 12,10 C11.45,10 11,10.45 11,11 L11,13 L9,13 C8.45,13 8,13.45 8,14 C8,14.55 8.45,15 9,15 L11,15 L11,17 C11,17.55 11.45,18 12,18 C12.55,18 13,17.55 13,17 L13,15 L15,15 C15.55,15 16,14.55 16,14 C16,13.45 15.55,13 15,13 L13,13 Z" id="Fill-3" fill="#1F2555"></path>
        </g>
    </g>
</svg>

<?xml version="1.0" encoding="utf-8"?>
<!-- Generator: Adobe Illustrator 24.0.3, SVG Export Plug-In . SVG Version: 6.00 Build 0)  -->
<svg version="1.1" id="Layer_1" xmlns="http://www.w3.org/2000/svg" xmlns:xlink="http://www.w3.org/1999/xlink" x="0px" y="0px"
	 viewBox="0 0 24 24" enable-background="new 0 0 24 24" xml:space="preserve">
<path fill-rule="evenodd" clip-rule="evenodd" d="M18,3h-1c0-1.1-0.9-2-2-2H9C7.9,1,7,1.9,7,3H6C4.3,3,3,4.3,3,6v14c0,1.7,1.3,3,3,3
	h12c1.7,0,3-1.3,3-3V6C21,4.3,19.7,3,18,3z M9,3h6v2H9V3z M19,20c0,0.5-0.5,1-1,1H6c-0.5,0-1-0.5-1-1V6c0-0.5,0.5-1,1-1h1
	c0,1.1,0.9,2,2,2h6c1.1,0,2-0.9,2-2h1c0.5,0,1,0.5,1,1V20z M15,13h-2v-2c0-0.5-0.5-1-1-1s-1,0.5-1,1v2H9c-0.5,0-1,0.5-1,1s0.5,1,1,1
	h2v2c0,0.5,0.5,1,1,1s1-0.5,1-1v-2h2c0.5,0,1-0.5,1-1S15.5,13,15,13z"/>
</svg>
